<?xml version="1.0" encoding="UTF-8"?>
<map version="1.10" tiledversion="1.10.2" orientation="orthogonal" renderorder="right-down" width="112" height="7" tilewidth="16" tileheight="16" infinite="0" nextlayerid="17" nextobjectid="1">
 <tileset firstgid="1" source="../../Documents/TileD/Tileset.tsx"/>
 <imagelayer id="2" name="Camada de Imagens 1" visible="0" opacity="0.6">
  <image source="wallAutoGuide.png" trans="fe00b2" width="1792" height="112"/>
 </imagelayer>
 <imagelayer id="4" name="Camada de Imagens 2" visible="0" opacity="0.7">
  <image source="../spr_tile_wal_dirt_strip56.png"/>
 </imagelayer>
 <layer id="5" name="Camada de Blocos 3" width="112" height="7" visible="0">
  <data encoding="csv">
0,0,6,6,0,0,6,6,6,6,0,0,6,6,6,6,0,0,6,6,6,6,6,6,6,6,0,0,6,6,0,0,0,0,6,6,0,0,0,0,0,6,0,0,6,6,6,0,0,0,6,6,0,0,6,6,6,6,0,0,6,6,6,6,6,6,6,6,0,0,6,6,6,6,0,0,6,6,6,6,6,6,6,6,0,0,6,6,6,6,6,6,6,6,6,6,0,0,6,6,6,6,6,6,6,6,6,6,0,0,0,0,
6,6,6,6,6,2147483667,6,6,6,6,6,6,6,6,6,6,6,6,6,6,6,6,6,6,6,6,6,6,6,6,0,6,0,6,6,6,0,0,0,0,0,6,6,6,6,6,6,6,6,6,6,6,6,0,6,6,6,6,6,6,6,6,6,6,6,6,6,6,0,6,6,6,6,6,6,6,6,6,6,6,6,6,6,6,6,6,6,6,6,6,6,6,6,6,6,6,6,0,6,6,6,6,6,6,6,6,6,6,6,6,6,6,
0,0,0,0,0,0,0,0,0,0,0,0,0,0,0,0,0,0,0,0,0,0,0,0,0,0,7,7,0,0,0,0,0,0,0,0,0,0,0,0,0,0,0,0,0,0,0,0,0,0,0,0,0,0,0,0,0,0,0,0,0,0,0,0,0,0,0,0,0,0,0,0,0,0,0,0,0,0,0,0,0,0,0,0,0,0,0,0,0,0,0,0,0,0,0,0,0,0,0,0,0,0,0,0,0,0,0,0,0,0,0,0,
0,0,0,0,0,0,0,0,0,0,0,0,0,0,0,0,0,0,0,0,0,0,0,0,0,0,7,7,0,0,0,0,0,0,0,0,0,0,0,0,0,0,0,0,0,0,0,0,0,0,0,0,0,0,0,0,0,0,0,0,0,0,0,0,0,0,0,0,0,0,0,0,0,0,0,0,0,0,0,0,0,0,0,0,0,0,0,0,0,0,0,0,0,0,0,0,0,0,0,0,0,0,0,0,0,0,0,0,0,0,0,0,
0,0,0,0,0,0,0,0,0,0,0,0,0,0,0,0,0,0,0,0,0,0,0,0,0,0,0,0,0,0,0,0,0,0,0,0,0,0,0,0,0,0,0,0,0,0,0,0,0,0,0,0,0,0,0,0,0,0,0,0,0,0,0,0,0,0,0,0,0,0,0,0,0,0,0,0,0,0,0,0,0,0,0,0,0,0,0,0,0,0,0,0,0,0,0,0,0,0,0,0,0,0,0,0,0,0,0,0,0,0,0,6,
0,0,0,0,0,0,0,0,0,0,0,0,0,0,0,0,0,0,0,0,0,0,0,0,0,0,0,0,0,0,0,0,0,0,0,0,0,0,0,0,0,0,0,0,0,0,0,0,0,0,0,0,0,0,0,0,0,0,0,0,0,0,0,0,0,0,0,0,0,0,0,0,0,0,0,0,0,0,0,0,0,0,0,0,0,0,0,0,0,0,0,0,0,0,0,0,0,0,0,0,0,0,0,0,0,0,0,0,0,0,0,0,
0,0,0,0,0,0,0,0,0,0,0,0,0,0,0,0,0,0,0,0,0,0,0,0,0,0,0,0,0,0,0,0,0,0,0,0,0,0,0,0,0,0,0,0,0,0,0,0,0,0,0,0,0,0,0,0,0,0,0,0,0,0,0,0,0,0,0,0,0,0,0,0,0,0,0,0,0,0,0,0,0,0,0,0,0,0,0,0,0,0,0,0,0,0,0,0,0,0,0,0,0,0,0,0,0,0,0,0,0,0,0,0
</data>
 </layer>
 <layer id="7" name="Extra Bottom" width="112" height="7" visible="0">
  <data encoding="csv">
0,0,0,0,0,0,0,0,0,0,0,0,0,0,0,0,0,0,0,0,0,0,0,0,0,0,0,0,0,0,0,0,0,0,0,0,0,0,0,0,0,0,0,0,0,0,0,0,0,0,0,0,0,0,0,0,0,0,0,0,0,0,0,0,0,0,0,0,0,0,0,0,0,0,0,0,0,0,0,0,0,0,0,0,0,0,0,0,0,0,0,0,0,0,0,0,0,0,0,0,0,0,0,0,0,0,0,0,0,0,0,0,
0,0,0,0,0,0,0,0,0,0,0,0,0,0,0,0,0,0,0,0,0,0,0,0,0,0,0,0,0,0,0,0,0,0,0,0,0,0,0,0,0,0,0,0,0,0,0,0,0,0,0,0,0,0,0,0,0,0,0,0,0,0,0,0,0,0,0,0,0,0,0,0,0,0,0,0,0,0,0,0,0,0,0,0,0,0,0,0,0,0,0,0,0,0,0,0,0,0,0,0,0,0,0,0,0,0,0,0,0,0,0,0,
0,0,0,0,0,0,0,0,0,0,0,0,0,0,0,0,0,0,0,0,0,0,0,0,0,0,0,0,0,0,0,35,0,0,2147483683,0,0,0,0,35,0,35,2147483683,35,2147483683,35,2147483683,35,2147483683,35,2147483683,35,0,0,0,0,0,0,0,2147483683,0,0,0,35,0,35,0,35,0,0,0,0,0,0,2147483683,0,2147483683,0,2147483683,0,2147483683,0,2147483683,0,0,0,0,0,0,0,0,0,0,0,0,0,2147483683,0,2147483683,0,0,35,2147483683,35,2147483683,0,0,0,0,0,0,0,
0,0,0,0,0,0,0,0,0,0,0,0,0,0,0,0,0,0,0,0,0,0,0,0,0,0,0,0,0,0,0,48,0,0,2147483696,0,0,0,0,48,0,48,2147483696,48,2147483696,48,2147483696,48,2147483696,48,2147483696,48,0,0,0,0,0,0,0,2147483696,0,0,0,48,0,48,0,48,0,0,0,0,0,0,2147483696,0,2147483696,0,2147483696,0,2147483696,0,2147483696,0,0,0,0,0,0,0,0,0,0,0,0,0,2147483696,0,2147483696,0,0,48,2147483696,48,2147483696,0,0,0,0,0,0,0,
0,0,0,0,0,0,0,0,0,0,0,0,0,0,0,0,0,0,0,0,0,0,0,0,0,0,0,0,0,0,0,61,0,0,2147483709,0,0,0,0,61,0,61,2147483709,61,2147483709,61,2147483709,61,2147483709,61,2147483709,61,0,0,0,0,0,0,0,2147483709,0,0,0,61,0,61,0,61,0,0,0,0,0,0,2147483709,0,2147483709,0,2147483709,0,2147483709,0,2147483709,0,0,0,0,0,0,0,0,0,0,0,0,0,2147483709,0,2147483709,0,0,61,2147483709,61,2147483709,0,0,0,0,0,0,0,
0,0,0,0,0,0,0,0,0,0,0,0,0,0,0,0,0,0,0,0,0,0,0,0,0,0,0,0,0,0,0,74,0,0,2147483722,0,0,0,0,74,0,74,2147483722,74,2147483722,74,2147483722,74,2147483722,74,2147483722,74,0,0,0,0,0,0,0,2147483722,0,0,0,74,0,74,0,74,0,0,0,0,0,0,2147483722,0,2147483722,0,2147483722,0,2147483722,0,2147483722,0,0,0,0,0,0,0,0,0,0,0,0,0,2147483722,0,2147483722,0,0,74,2147483722,74,2147483722,0,0,0,0,0,0,0,
0,0,0,0,0,0,0,0,0,0,0,0,0,0,0,0,0,0,0,0,0,0,0,0,0,0,0,0,0,0,0,87,0,0,2147483735,0,0,0,0,87,0,87,2147483735,87,2147483735,87,2147483735,87,2147483735,87,2147483735,87,0,0,0,0,0,0,0,2147483735,0,0,0,87,0,87,0,87,0,0,0,0,0,0,2147483735,0,2147483735,0,2147483735,0,2147483735,0,2147483735,0,0,0,0,0,0,0,0,0,0,0,0,0,2147483735,0,2147483735,0,0,87,2147483735,87,2147483735,0,0,0,0,0,0,0
</data>
 </layer>
 <layer id="3" name="Tile1" width="112" height="7">
  <data encoding="csv">
1,2,42,2147483690,2147483652,2147483651,43,3221225514,7,2147483703,3,4,42,2147483691,42,7,4,5,43,2147483691,7,2147483691,43,7,7,7,1,2,42,2147483690,3,4,3,4,7,2147483690,3,4,42,2147483691,42,7,4,5,43,2147483691,7,2147483691,4,5,7,7,2147483652,2147483651,43,2147483690,7,2147483690,4,5,43,7,7,2147483691,43,7,7,7,3,4,42,2147483691,42,7,4,5,43,2147483691,7,2147483691,43,7,7,7,4,5,43,2147483691,7,2147483691,43,7,7,7,7,7,2147483652,2147483651,43,3221225527,43,2147483691,43,7,43,2147483691,7,7,4,5,4,5,
14,15,14,15,20,2147483667,2147483668,2147483667,2147483668,2147483667,19,20,19,20,19,20,21,22,21,22,21,22,21,22,21,22,42,2147483690,55,2147483703,16,56,16,17,2147483704,2147483703,16,17,55,56,55,56,2147483704,56,2147483704,56,2147483704,56,2147483704,56,2147483704,56,2147483665,2147483664,7,2147483703,7,2147483703,7,56,21,22,7,56,7,56,7,56,16,17,55,7,55,7,2147483704,7,2147483704,7,2147483704,7,2147483704,7,2147483704,7,7,7,7,7,7,7,7,7,7,7,21,22,2147483704,2147483664,2147483704,3221225514,7,56,2147483704,56,2147483704,7,21,22,21,22,21,22,
27,28,27,28,2147483681,2147483680,2147483681,2147483680,2147483681,2147483680,32,33,32,33,32,33,34,35,34,35,34,35,34,35,34,35,42,2147483690,1073741879,3221225527,1073741879,3221225527,1073741879,7,42,2147483690,42,7,42,2147483690,42,2147483690,42,2147483690,42,2147483690,42,2147483690,42,2147483690,42,2147483690,7,2147483690,7,2147483690,7,2147483690,7,2147483690,34,35,7,2147483690,7,2147483690,7,2147483690,42,7,42,7,42,7,42,7,42,7,42,7,42,7,42,7,7,7,7,7,7,7,7,7,7,7,34,35,42,2147483690,42,2147483690,7,2147483690,42,2147483690,42,7,34,35,34,35,34,35,
40,41,40,41,2147483694,2147483693,2147483694,2147483693,2147483694,2147483693,45,46,45,46,45,46,47,48,47,48,47,48,47,48,47,48,55,2147483703,1073741866,3221225514,1073741866,3221225514,1073741866,7,55,2147483703,55,7,55,2147483703,55,2147483703,55,2147483703,55,2147483703,55,2147483703,55,2147483703,55,2147483703,7,2147483703,7,2147483703,7,2147483703,7,2147483703,47,48,7,2147483703,7,2147483703,7,2147483703,55,7,55,7,55,7,55,7,55,7,55,7,55,7,55,7,7,7,7,7,7,7,7,7,7,7,47,48,55,2147483703,55,2147483703,7,2147483703,55,2147483703,55,7,47,48,47,48,47,48,
53,54,53,54,2147483707,2147483706,2147483707,2147483706,2147483707,2147483706,58,59,58,59,58,59,60,61,60,61,60,61,60,61,60,61,0,0,0,0,0,0,0,0,0,0,0,0,0,0,0,0,0,0,0,0,0,0,0,0,0,0,0,0,0,0,0,0,0,0,60,61,0,0,0,0,0,0,0,0,0,0,0,0,0,0,0,0,0,0,0,0,0,0,0,0,0,0,0,0,0,0,0,0,60,61,0,0,0,0,0,0,0,0,0,0,60,61,60,61,60,61,
66,67,66,67,2147483720,2147483719,2147483720,2147483719,2147483720,2147483719,71,72,71,72,71,72,73,74,73,74,73,74,73,74,73,74,0,0,0,0,0,0,0,0,0,0,0,0,0,0,0,0,0,0,0,0,0,0,0,0,0,0,0,0,0,0,0,0,0,0,73,74,0,0,0,0,0,0,0,0,0,0,0,0,0,0,0,0,0,0,0,0,0,0,0,0,0,0,0,0,0,0,0,0,73,74,0,0,0,0,0,0,0,0,0,0,73,74,73,74,73,74,
79,80,79,80,2147483733,2147483732,2147483733,2147483732,2147483733,2147483732,84,85,84,85,84,85,86,87,86,87,86,87,86,87,86,87,0,0,0,0,0,0,0,0,0,0,0,0,0,0,0,0,0,0,0,0,0,0,0,0,0,0,0,0,0,0,0,0,0,0,86,87,0,0,0,0,0,0,0,0,0,0,0,0,0,0,0,0,0,0,0,0,0,0,0,0,0,0,0,0,0,0,0,0,86,87,0,0,0,0,0,0,0,0,0,0,86,87,86,87,86,87
</data>
 </layer>
 <layer id="9" name="Tile2" width="112" height="7" opacity="1">
  <data encoding="csv">
1,2,42,2147483690,2147483652,2147483651,43,3221225514,7,2147483703,3,4,42,2147483691,42,7,4,5,43,2147483691,7,2147483691,43,7,7,7,1,2,42,2147483690,3,4,3,4,7,2147483690,3,4,42,2147483691,42,7,4,5,43,2147483691,7,2147483691,4,5,7,7,2147483652,2147483651,43,2147483690,7,2147483690,4,5,43,7,7,2147483691,43,7,7,7,3,4,42,2147483691,42,7,4,5,43,2147483691,7,2147483691,43,7,7,7,4,5,43,2147483691,7,2147483691,43,7,7,7,7,7,2147483652,2147483651,43,3221225527,43,2147483691,43,7,43,2147483691,7,7,4,5,4,5,
14,15,14,15,20,2147483667,2147483668,2147483667,2147483668,2147483667,19,20,19,20,19,20,21,22,21,22,21,22,21,22,21,22,42,2147483690,55,2147483703,16,56,16,17,2147483704,2147483703,16,17,55,56,55,56,2147483704,56,2147483704,56,2147483704,56,2147483704,56,2147483704,56,2147483665,2147483664,7,2147483703,7,2147483703,7,56,21,22,7,56,7,56,7,56,16,17,55,7,55,7,2147483704,7,2147483704,7,2147483704,7,2147483704,7,2147483704,7,7,7,7,7,7,7,7,7,7,7,21,22,2147483704,2147483664,2147483704,3221225514,7,56,2147483704,56,2147483704,7,21,22,21,22,21,22,
27,28,27,28,2147483681,2147483680,2147483681,2147483680,2147483681,2147483680,32,33,32,33,32,33,36,37,2147483685,2147483684,36,37,2147483685,2147483684,36,37,42,2147483690,1073741879,3221225527,1073741879,3221225527,1073741879,7,42,2147483690,42,7,42,2147483690,42,2147483690,42,2147483690,42,2147483690,42,2147483690,42,2147483690,42,2147483690,7,2147483690,7,2147483690,7,2147483690,7,2147483690,36,37,7,2147483690,7,2147483690,7,2147483690,42,7,42,7,42,7,42,7,42,7,42,7,42,7,42,7,7,7,7,7,7,7,7,7,7,7,36,37,42,2147483690,42,2147483690,7,2147483690,42,2147483690,42,7,36,37,2147483685,2147483684,36,37,
40,41,40,41,2147483694,2147483693,2147483694,2147483693,2147483694,2147483693,45,46,45,46,45,46,49,50,2147483698,2147483697,49,50,2147483698,2147483697,49,50,55,2147483703,1073741866,3221225514,1073741866,3221225514,1073741866,7,55,2147483703,55,7,55,2147483703,55,2147483703,55,2147483703,55,2147483703,55,2147483703,55,2147483703,55,2147483703,7,2147483703,7,2147483703,7,2147483703,7,2147483703,49,50,7,2147483703,7,2147483703,7,2147483703,55,7,55,7,55,7,55,7,55,7,55,7,55,7,55,7,7,7,7,7,7,7,7,7,7,7,49,50,55,2147483703,55,2147483703,7,2147483703,55,2147483703,55,7,49,50,2147483698,2147483697,49,50,
53,54,53,54,2147483707,2147483706,2147483707,2147483706,2147483707,2147483706,58,59,58,59,58,59,62,63,2147483711,2147483710,62,63,2147483711,2147483710,62,63,0,0,0,0,0,0,0,0,0,0,0,0,0,0,0,0,0,0,0,0,0,0,0,0,0,0,0,0,0,0,0,0,0,0,62,63,0,0,0,0,0,0,0,0,0,0,0,0,0,0,0,0,0,0,0,0,0,0,0,0,0,0,0,0,0,0,0,0,62,63,0,0,0,0,0,0,0,0,0,0,62,63,2147483711,2147483710,62,63,
66,67,66,67,2147483720,2147483719,2147483720,2147483719,2147483720,2147483719,71,72,71,72,71,72,75,76,2147483724,2147483723,75,76,2147483724,2147483723,75,76,0,0,0,0,0,0,0,0,0,0,0,0,0,0,0,0,0,0,0,0,0,0,0,0,0,0,0,0,0,0,0,0,0,0,75,76,0,0,0,0,0,0,0,0,0,0,0,0,0,0,0,0,0,0,0,0,0,0,0,0,0,0,0,0,0,0,0,0,75,76,0,0,0,0,0,0,0,0,0,0,75,76,2147483724,2147483723,75,76,
79,80,79,80,2147483733,2147483732,2147483733,2147483732,2147483733,2147483732,84,85,84,85,84,85,88,89,2147483737,2147483736,88,89,2147483737,2147483736,88,89,0,0,0,0,0,0,0,0,0,0,0,0,0,0,0,0,0,0,0,0,0,0,0,0,0,0,0,0,0,0,0,0,0,0,88,89,0,0,0,0,0,0,0,0,0,0,0,0,0,0,0,0,0,0,0,0,0,0,0,0,0,0,0,0,0,0,0,0,88,89,0,0,0,0,0,0,0,0,0,0,88,89,2147483737,2147483736,88,89
</data>
 </layer>
 <layer id="10" name="Tile3" width="112" height="7">
  <data encoding="csv">
1,2,42,2147483690,2147483652,2147483651,43,3221225514,7,2147483703,3,4,42,2147483691,42,7,4,5,43,2147483691,7,2147483691,43,7,7,7,1,2,42,2147483690,3,4,3,4,7,2147483690,3,4,42,2147483691,42,7,4,5,43,2147483691,7,2147483691,4,5,7,7,2147483652,2147483651,43,2147483690,7,2147483690,4,5,43,7,7,2147483691,43,7,7,7,3,4,42,2147483691,42,7,4,5,43,2147483691,7,2147483691,43,7,7,7,4,5,43,2147483691,7,2147483691,43,7,7,7,7,7,2147483652,2147483651,43,3221225527,43,2147483691,43,7,43,2147483691,7,7,4,5,4,5,
14,15,14,15,20,2147483667,2147483668,2147483667,2147483668,2147483667,19,20,19,20,19,20,21,22,21,22,21,22,21,22,21,22,42,2147483690,55,2147483703,16,56,16,17,2147483704,2147483703,16,17,55,56,55,56,2147483704,56,2147483704,56,2147483704,56,2147483704,56,2147483704,56,2147483665,2147483664,7,2147483703,7,2147483703,7,56,21,22,7,56,7,56,7,56,16,17,55,7,55,7,2147483704,7,2147483704,7,2147483704,7,2147483704,7,2147483704,7,7,7,7,7,7,7,7,7,7,7,21,22,2147483704,2147483664,2147483704,3221225514,7,56,2147483704,56,2147483704,7,21,22,21,22,21,22,
27,28,27,28,2147483681,2147483680,2147483681,2147483680,2147483681,2147483680,32,33,32,33,32,33,38,39,2147483687,2147483686,38,39,2147483687,2147483686,38,39,42,2147483690,1073741879,3221225527,1073741879,3221225527,1073741879,7,42,2147483690,42,7,42,2147483690,42,2147483690,42,2147483690,42,2147483690,42,2147483690,42,2147483690,42,2147483690,7,2147483690,7,2147483690,7,2147483690,7,2147483690,38,39,7,2147483690,7,2147483690,7,2147483690,42,7,42,7,42,7,42,7,42,7,42,7,42,7,42,7,7,7,7,7,7,7,7,7,7,7,38,39,42,2147483690,42,2147483690,7,2147483690,42,2147483690,42,7,38,39,2147483687,2147483686,38,39,
40,41,40,41,2147483694,2147483693,2147483694,2147483693,2147483694,2147483693,45,46,45,46,45,46,51,52,2147483700,2147483699,51,52,2147483700,2147483699,51,52,55,2147483703,1073741866,3221225514,1073741866,3221225514,1073741866,7,55,2147483703,55,7,55,2147483703,55,2147483703,55,2147483703,55,2147483703,55,2147483703,55,2147483703,55,2147483703,7,2147483703,7,2147483703,7,2147483703,7,2147483703,51,52,7,2147483703,7,2147483703,7,2147483703,55,7,55,7,55,7,55,7,55,7,55,7,55,7,55,7,7,7,7,7,7,7,7,7,7,7,51,52,55,2147483703,55,2147483703,7,2147483703,55,2147483703,55,7,51,52,2147483700,2147483699,51,52,
53,54,53,54,2147483707,2147483706,2147483707,2147483706,2147483707,2147483706,58,59,58,59,58,59,64,65,2147483713,2147483712,64,65,2147483713,2147483712,64,65,0,0,0,0,0,0,0,0,0,0,0,0,0,0,0,0,0,0,0,0,0,0,0,0,0,0,0,0,0,0,0,0,0,0,64,65,0,0,0,0,0,0,0,0,0,0,0,0,0,0,0,0,0,0,0,0,0,0,0,0,0,0,0,0,0,0,0,0,64,65,0,0,0,0,0,0,0,0,0,0,64,65,2147483713,2147483712,64,65,
66,67,66,67,2147483720,2147483719,2147483720,2147483719,2147483720,2147483719,71,72,71,72,71,72,77,78,2147483726,2147483725,77,78,2147483726,2147483725,77,78,0,0,0,0,0,0,0,0,0,0,0,0,0,0,0,0,0,0,0,0,0,0,0,0,0,0,0,0,0,0,0,0,0,0,77,78,0,0,0,0,0,0,0,0,0,0,0,0,0,0,0,0,0,0,0,0,0,0,0,0,0,0,0,0,0,0,0,0,77,78,0,0,0,0,0,0,0,0,0,0,77,78,2147483726,2147483725,77,78,
79,80,79,80,2147483733,2147483732,2147483733,2147483732,2147483733,2147483732,84,85,84,85,84,85,90,91,2147483739,2147483738,90,91,2147483739,2147483738,90,91,0,0,0,0,0,0,0,0,0,0,0,0,0,0,0,0,0,0,0,0,0,0,0,0,0,0,0,0,0,0,0,0,0,0,90,91,0,0,0,0,0,0,0,0,0,0,0,0,0,0,0,0,0,0,0,0,0,0,0,0,0,0,0,0,0,0,0,0,90,91,0,0,0,0,0,0,0,0,0,0,90,91,2147483739,2147483738,90,91
</data>
 </layer>
 <layer id="14" name="Camada de Blocos 9" width="112" height="7" visible="0">
  <data encoding="csv">
0,0,0,0,0,0,0,0,0,0,0,0,0,0,0,0,0,0,0,0,0,0,0,0,0,0,0,0,0,0,0,0,0,0,0,0,0,0,0,0,0,0,0,0,0,0,0,0,0,0,0,0,0,0,0,0,0,0,0,0,0,0,0,0,0,0,0,0,0,0,0,0,0,0,0,0,0,0,0,0,0,0,0,0,0,0,0,0,0,0,0,0,0,0,0,0,0,0,0,0,0,0,0,0,0,0,0,0,0,0,0,0,
0,0,0,0,0,0,0,0,0,0,0,0,0,0,0,0,0,0,0,0,0,0,0,0,0,0,0,0,0,0,0,0,0,0,0,0,0,0,0,0,0,0,0,0,0,0,0,0,0,0,0,0,0,0,0,0,0,0,0,0,0,0,0,0,0,0,0,0,0,0,0,0,0,0,0,0,0,0,0,0,0,0,0,0,0,0,0,0,0,0,0,0,0,0,0,0,0,0,0,0,0,0,0,0,0,0,0,0,0,0,0,0,
0,0,0,0,0,0,0,0,0,0,0,0,0,0,0,0,0,0,0,0,0,0,0,0,0,0,0,0,0,0,0,0,0,0,0,0,0,0,0,0,0,0,0,0,0,0,0,0,0,0,0,0,0,0,0,0,0,0,0,0,0,0,0,0,0,0,0,0,0,0,0,0,0,0,0,0,0,0,0,0,0,0,0,0,0,0,0,0,0,0,0,0,0,0,0,0,0,0,0,0,0,0,0,0,0,0,0,0,0,0,0,0,
0,0,0,0,0,0,0,0,0,0,0,0,0,0,0,0,0,0,0,0,0,0,0,0,0,0,0,0,0,0,0,35,0,35,0,0,0,35,0,0,0,0,0,0,0,0,0,0,0,0,0,0,35,0,0,0,0,0,0,0,0,0,0,0,0,0,0,0,0,0,0,0,0,0,0,0,0,0,0,0,0,0,0,0,0,0,0,0,0,0,0,0,0,0,0,0,35,0,0,0,0,0,0,0,0,0,0,0,0,0,0,0,
0,0,0,0,0,0,0,0,0,0,0,0,0,0,0,0,0,0,0,0,0,0,0,0,0,0,0,0,0,0,0,48,0,48,0,0,0,48,0,0,0,0,0,0,0,0,0,0,0,0,0,0,48,0,0,0,0,0,0,0,0,0,0,0,0,0,0,0,0,0,0,0,0,0,0,0,0,0,0,0,0,0,0,0,0,0,0,0,0,0,0,0,0,0,0,0,48,0,0,0,0,0,0,0,0,0,0,0,0,0,0,0,
0,0,0,0,0,0,0,0,0,0,0,0,0,0,0,0,0,0,0,0,0,0,0,0,0,0,0,0,0,0,0,61,0,61,0,0,0,61,0,0,0,0,0,0,0,0,0,0,0,0,0,0,61,0,0,0,0,0,0,0,0,0,0,0,0,0,0,0,0,0,0,0,0,0,0,0,0,0,0,0,0,0,0,0,0,0,0,0,0,0,0,0,0,0,0,0,61,0,0,0,0,0,0,0,0,0,0,0,0,0,0,0,
0,0,0,0,0,0,0,0,0,0,0,0,0,0,0,0,0,0,0,0,0,0,0,0,0,0,0,0,0,0,0,74,0,74,0,0,0,74,0,0,0,0,0,0,0,0,0,0,0,0,0,0,74,0,0,0,0,0,0,0,0,0,0,0,0,0,0,0,0,0,0,0,0,0,0,0,0,0,0,0,0,0,0,0,0,0,0,0,0,0,0,0,0,0,0,0,74,0,0,0,0,0,0,0,0,0,0,0,0,0,0,0
</data>
 </layer>
 <layer id="11" name="Special Tiles" width="112" height="7" visible="0">
  <data encoding="csv">
0,0,0,0,0,0,0,0,0,0,0,0,0,0,0,0,0,0,0,0,0,0,0,0,0,0,0,0,0,0,0,0,0,0,0,0,0,0,0,0,0,0,0,0,0,0,0,0,0,0,0,0,0,0,0,0,0,0,0,0,0,0,0,0,0,0,0,0,0,0,0,0,0,0,0,0,0,0,0,0,0,0,0,0,0,0,0,0,0,0,0,0,0,0,0,0,0,0,0,0,0,0,0,0,0,0,0,0,0,0,0,0,
10,2147483658,23,2147483671,0,0,10,11,31,2147483658,0,0,2147483659,2147483658,10,2147483679,0,0,10,11,31,11,2147483659,2147483679,0,0,10,2147483658,10,2147483658,0,0,4,5,0,0,4,5,10,11,10,31,0,0,0,0,0,0,0,0,0,0,2147483653,2147483652,0,0,0,0,0,0,0,0,0,0,0,0,0,0,4,5,0,0,0,0,0,0,0,0,0,0,0,0,0,0,0,0,0,0,0,0,0,0,0,0,0,0,0,0,2147483659,2147483658,0,0,0,0,0,0,0,0,0,0,0,0,
36,2147483684,36,2147483684,21,22,2147483668,2147483667,2147483666,2147483665,21,22,19,20,17,18,21,22,2147483657,9,18,9,2147483657,2147483666,21,22,23,2147483671,23,2147483671,6,7,10,31,0,0,10,31,10,2147483661,10,18,86,87,86,87,0,0,86,87,18,18,2147483679,2147483658,0,0,0,0,0,0,0,0,0,0,0,0,0,0,10,31,0,0,0,0,0,0,0,0,0,0,0,0,0,0,0,0,0,0,0,0,0,0,0,0,0,0,2147483655,2147483654,13,2147483658,0,0,0,0,0,0,0,0,0,0,0,0,
49,2147483697,49,2147483697,34,35,2147483681,2147483680,2147483681,2147483680,34,35,32,33,32,33,34,35,34,35,34,35,2147483683,2147483682,34,35,36,2147483684,10,2147483658,23,24,36,18,0,0,36,18,23,24,23,24,2147483672,24,2147483672,24,0,0,2147483672,24,2147483672,24,2147483666,2147483684,0,0,0,0,0,0,0,0,0,0,0,0,0,0,36,18,0,0,0,0,0,0,0,0,0,0,0,0,0,0,0,0,0,0,0,0,0,0,0,0,0,0,2147483672,2147483671,2147483672,2147483671,0,0,0,0,0,0,0,0,0,0,0,0,
62,2147483710,62,2147483710,47,48,2147483694,2147483693,2147483694,2147483693,47,48,45,46,45,46,47,48,47,48,47,48,2147483696,2147483695,47,48,49,2147483697,49,2147483697,36,37,49,34,0,0,49,34,36,37,36,37,2147483685,37,2147483685,37,0,0,2147483685,37,2147483685,37,2147483682,2147483697,0,0,0,0,0,0,0,0,0,0,0,0,0,0,49,34,0,0,0,0,0,0,0,0,0,0,0,0,0,0,0,0,0,0,0,0,0,0,0,0,0,0,2147483685,2147483684,2147483685,2147483684,0,0,0,0,0,0,0,0,0,0,0,0,
75,2147483723,75,2147483723,60,61,2147483707,2147483706,2147483707,2147483706,60,61,58,59,58,59,60,61,60,61,60,61,2147483709,2147483708,60,61,62,2147483710,62,2147483710,49,50,62,47,0,0,62,47,49,50,49,50,2147483698,50,2147483698,50,0,0,2147483698,50,2147483698,50,2147483695,2147483710,0,0,0,0,0,0,0,0,0,0,0,0,0,0,62,47,0,0,0,0,0,0,0,0,0,0,0,0,0,0,0,0,0,0,0,0,0,0,0,0,0,0,2147483698,2147483697,2147483698,2147483697,0,0,0,0,0,0,0,0,0,0,0,0,
88,2147483736,88,2147483736,73,74,2147483720,2147483719,2147483720,2147483719,73,74,71,72,71,72,73,74,73,74,73,74,2147483722,2147483721,73,74,75,2147483723,75,2147483723,62,63,75,60,0,0,75,60,62,63,62,63,2147483711,63,2147483711,63,0,0,2147483711,63,2147483711,63,2147483708,2147483723,0,0,0,0,0,0,0,0,0,0,0,0,0,0,75,60,0,0,0,0,0,0,0,0,0,0,0,0,0,0,0,0,0,0,0,0,0,0,0,0,0,0,2147483711,2147483710,2147483711,2147483710,0,0,0,0,0,0,0,0,0,0,0,0
</data>
 </layer>
 <layer id="16" name="Camada de Blocos 10" width="112" height="7" visible="0">
  <data encoding="csv">
0,0,0,0,0,0,0,0,0,0,0,0,0,0,0,0,0,0,0,0,0,0,0,0,0,0,0,0,0,0,0,0,0,0,0,0,0,0,0,0,0,0,0,0,0,0,0,0,0,0,0,0,0,0,0,0,0,0,0,0,0,0,0,0,0,0,0,0,0,0,0,0,0,0,0,0,0,0,0,0,0,0,0,0,0,0,0,0,0,0,0,0,0,0,0,0,0,0,0,0,0,0,0,0,0,0,0,0,0,0,0,0,
0,0,0,0,0,0,0,0,0,0,0,0,0,0,0,0,0,0,0,0,0,0,0,0,0,0,0,0,0,0,0,0,0,0,0,0,0,0,0,0,0,0,0,0,10,11,0,0,0,0,31,31,0,0,0,0,0,0,0,0,0,0,0,0,0,0,0,0,0,0,0,0,0,0,0,0,0,0,0,0,0,0,0,0,0,0,0,0,0,0,0,0,0,0,0,0,0,0,0,0,0,0,0,0,0,0,0,0,0,0,0,0,
0,0,0,0,0,0,0,0,0,0,0,0,0,0,0,0,0,0,0,0,0,0,0,0,0,0,0,0,0,0,0,0,0,0,0,0,0,0,0,0,0,12,0,0,10,11,0,0,0,0,10,11,0,0,0,0,0,0,0,0,0,0,0,0,0,0,0,0,0,0,0,0,0,0,0,0,0,0,0,0,0,0,0,0,0,0,0,0,0,0,0,0,0,0,0,0,0,0,0,0,0,0,0,0,0,0,0,0,0,0,0,0,
0,0,0,0,0,0,0,0,0,0,0,0,0,0,0,0,0,0,0,0,0,0,0,0,0,0,0,0,0,0,0,0,0,0,0,0,0,0,0,0,0,0,0,0,0,0,0,0,0,0,0,0,0,0,0,0,0,0,0,0,0,0,0,0,0,0,0,0,0,0,0,0,0,0,0,0,0,0,0,0,0,0,0,0,0,0,0,0,0,0,0,0,0,0,0,0,0,0,0,0,0,0,0,0,0,0,0,0,0,0,0,0,
0,0,0,0,0,0,0,0,0,0,0,0,0,0,0,0,0,0,0,0,0,0,0,0,0,0,0,0,0,0,0,0,0,0,0,0,0,0,0,0,0,0,0,0,0,0,0,0,0,0,0,0,0,0,0,0,0,0,0,0,0,0,0,0,0,0,0,0,0,0,0,0,0,0,0,0,0,0,0,0,0,0,0,0,0,0,0,0,0,0,0,0,0,0,0,0,0,0,0,0,0,0,0,0,0,0,0,0,0,0,0,0,
0,0,0,0,0,0,0,0,0,0,0,0,0,0,0,0,0,0,0,0,0,0,0,0,0,0,0,0,0,0,0,0,0,0,0,0,0,0,0,0,0,0,0,0,0,0,0,0,0,0,0,0,0,0,0,0,0,0,0,0,0,0,0,0,0,0,0,0,0,0,0,0,0,0,0,0,0,0,0,0,0,0,0,0,0,0,0,0,0,0,0,0,0,0,0,0,0,0,0,0,0,0,0,0,0,0,0,0,0,0,0,0,
0,0,0,0,0,0,0,0,0,0,0,0,0,0,0,0,0,0,0,0,0,0,0,0,0,0,0,0,0,0,0,0,0,0,0,0,0,0,0,0,0,0,0,0,0,0,0,0,0,0,0,0,0,0,0,0,0,0,0,0,0,0,0,0,0,0,0,0,0,0,0,0,0,0,0,0,0,0,0,0,0,0,0,0,0,0,0,0,0,0,0,0,0,0,0,0,0,0,0,0,0,0,0,0,0,0,0,0,0,0,0,0
</data>
 </layer>
 <layer id="8" name="Extra Top" width="112" height="7" visible="0">
  <data encoding="csv">
0,0,0,0,0,0,0,0,0,0,0,0,0,0,0,0,0,0,0,0,0,0,0,0,0,0,0,0,0,0,0,0,0,0,0,0,0,0,0,0,0,0,0,0,0,0,0,0,0,0,0,0,0,0,0,0,0,0,0,0,0,0,0,0,0,0,0,0,0,0,0,0,0,0,0,0,0,0,0,0,0,0,0,0,0,0,0,0,0,0,0,0,0,0,0,0,0,0,0,0,0,0,0,0,0,0,0,0,0,0,0,0,
0,0,0,0,0,0,0,0,0,0,0,0,0,0,0,0,0,0,0,0,0,0,0,0,0,0,0,0,0,0,0,0,0,0,0,0,0,0,0,0,0,0,0,0,0,0,0,0,0,0,0,0,0,0,0,0,0,0,0,0,0,0,0,0,0,0,0,0,0,0,0,0,0,0,0,0,0,0,0,0,0,0,0,0,0,0,0,0,0,0,0,0,0,0,0,0,0,0,0,0,0,0,0,0,0,0,0,0,0,0,0,0,
0,0,0,0,0,0,0,0,0,0,0,0,0,0,0,0,0,0,0,0,0,0,0,0,0,0,0,0,0,0,0,0,0,0,0,0,0,0,0,0,0,0,0,0,0,0,0,0,0,0,0,0,0,0,0,0,0,0,0,0,0,0,0,0,0,0,0,0,0,0,0,0,0,0,0,0,0,0,0,0,0,0,0,0,0,0,0,0,0,0,0,0,0,0,0,0,0,0,0,0,0,0,0,0,0,0,0,0,0,0,0,0,
0,0,0,0,0,0,0,0,0,0,0,0,0,0,0,0,0,0,0,0,0,0,0,0,0,0,0,0,0,0,0,0,0,0,0,0,0,0,0,0,0,0,0,0,0,0,0,0,0,0,0,0,0,0,0,0,0,0,0,0,0,0,0,0,0,0,0,0,0,0,0,0,0,0,0,0,0,0,0,0,0,0,0,0,0,0,0,0,0,0,0,0,0,0,0,0,0,0,0,0,0,0,0,0,0,0,0,0,0,0,0,0,
0,0,0,0,0,0,0,0,0,0,0,0,0,0,0,0,0,0,0,0,0,0,0,0,0,0,42,2147483690,1073741879,3221225527,1073741879,3221225527,1073741879,7,42,2147483690,42,7,42,2147483690,42,2147483690,42,2147483690,42,2147483690,42,2147483690,42,2147483690,42,2147483690,7,2147483690,7,2147483690,7,2147483690,7,2147483690,0,0,7,2147483690,7,2147483690,7,2147483690,42,7,42,7,42,7,42,7,42,7,42,7,42,7,42,7,7,7,7,7,7,7,7,7,7,7,0,0,42,2147483690,42,2147483690,7,2147483690,42,2147483690,42,7,0,0,0,0,0,0,
0,0,0,0,0,0,0,0,0,0,0,0,0,0,0,0,0,0,0,0,0,0,0,0,0,0,55,2147483703,1073741866,3221225514,1073741866,3221225514,1073741866,7,55,2147483703,55,7,55,2147483703,55,2147483703,55,2147483703,55,2147483703,55,2147483703,55,2147483703,55,2147483703,7,2147483703,7,2147483703,7,2147483703,7,2147483703,0,0,7,2147483703,7,2147483703,7,2147483703,55,7,55,7,55,7,55,7,55,7,55,7,55,7,55,7,7,7,7,7,7,7,7,7,7,7,0,0,55,2147483703,55,2147483703,7,2147483703,55,2147483703,55,7,0,0,0,0,0,0,
0,0,0,0,0,0,0,0,0,0,0,0,0,0,0,0,0,0,0,0,0,0,0,0,0,0,42,2147483690,1073741879,3221225527,1073741879,3221225527,1073741879,7,42,2147483690,42,7,42,2147483690,42,2147483690,42,2147483690,42,2147483690,42,2147483690,42,2147483690,42,2147483690,7,2147483690,7,2147483690,7,2147483690,7,2147483690,0,0,7,2147483690,7,2147483690,7,2147483690,42,7,42,7,42,7,42,7,42,7,42,7,42,7,42,7,7,7,7,7,7,7,7,7,7,7,0,0,42,2147483690,42,2147483690,7,2147483690,42,2147483690,42,7,0,0,0,0,0,0
</data>
 </layer>
 <layer id="13" name="Numbers" width="112" height="7" visible="0">
  <data encoding="csv">
0,0,0,0,0,0,0,0,0,0,0,0,0,0,0,0,0,0,0,0,0,0,0,0,0,0,0,0,0,0,0,0,0,0,0,0,0,0,0,0,0,0,0,0,0,0,0,0,0,0,0,0,0,0,0,0,0,0,0,0,0,0,0,0,0,0,0,0,0,0,0,0,0,0,0,0,0,0,0,0,0,0,0,0,0,0,0,0,0,0,0,0,0,0,0,0,0,0,0,0,0,0,0,0,0,0,0,0,0,0,0,0,
0,0,0,0,0,0,0,0,0,0,0,0,0,0,0,0,0,0,0,0,0,0,0,0,0,0,0,0,0,0,0,0,0,0,0,0,0,0,0,0,0,0,0,0,0,0,0,0,0,0,0,0,0,0,0,0,0,0,0,0,0,0,0,0,0,0,0,0,0,0,0,0,0,0,0,0,0,0,0,0,0,0,0,0,0,0,0,0,0,0,0,0,0,0,0,0,0,0,0,0,0,0,0,0,0,0,0,0,0,0,0,0,
0,0,0,0,0,0,0,0,0,0,0,0,0,0,0,0,0,0,0,0,0,0,0,0,0,0,0,0,0,0,0,0,0,0,0,0,0,0,0,0,0,0,0,0,0,0,0,0,0,0,0,0,0,0,0,0,0,0,0,0,0,0,0,0,0,0,0,0,0,0,0,0,0,0,0,0,0,0,0,0,0,0,0,0,0,0,0,0,0,0,0,0,0,0,0,0,0,0,0,0,0,0,0,0,0,0,0,0,0,0,0,0,
0,0,0,0,0,0,0,0,0,0,0,0,0,0,0,0,0,0,0,0,0,0,0,0,0,0,0,0,0,0,0,0,0,0,0,0,0,0,0,0,0,0,0,0,0,0,0,0,0,0,0,0,0,0,0,0,0,0,0,0,0,0,0,0,0,0,0,0,0,0,0,0,0,0,0,0,0,0,0,0,0,0,0,0,0,0,0,0,0,0,0,0,0,0,0,0,0,0,0,0,0,0,0,0,0,0,0,0,0,0,0,0,
0,0,0,0,0,0,0,0,0,0,0,0,0,0,0,0,0,0,0,0,0,0,0,0,0,0,0,0,0,0,0,0,0,0,0,0,0,0,0,0,0,0,0,0,0,0,0,0,0,0,0,0,0,0,0,0,0,0,0,0,0,0,0,0,0,0,0,0,0,0,0,0,0,0,0,0,0,0,0,0,0,0,0,0,0,0,0,0,0,0,0,0,0,0,0,0,0,0,0,0,0,0,0,0,0,0,0,0,0,0,0,0,
0,0,0,0,0,0,0,0,0,0,0,0,0,0,0,0,0,0,0,0,0,0,0,0,0,0,0,0,0,0,0,0,0,0,0,0,0,0,0,0,0,0,0,0,0,0,0,0,0,0,0,0,0,0,0,0,0,0,0,0,0,0,0,0,0,0,0,0,0,0,0,0,0,0,0,0,0,0,0,0,0,0,0,0,0,0,0,0,0,0,0,0,0,0,0,0,0,0,0,0,0,0,0,0,0,0,0,0,0,0,0,0,
79,80,79,81,0,82,0,83,0,84,0,85,0,86,0,87,0,88,80,89,80,80,80,81,80,82,80,83,80,84,80,85,80,86,80,87,80,88,81,89,81,80,81,81,81,82,0,0,0,0,0,0,0,0,0,0,0,0,0,0,0,0,0,0,0,0,0,0,0,0,0,0,0,0,0,0,0,0,0,0,0,0,0,0,0,0,0,0,0,0,0,0,0,0,0,0,0,0,0,0,0,0,0,0,0,0,0,0,0,0,0,0
</data>
 </layer>
</map>
