<?xml version="1.0" encoding="UTF-8"?>
<map version="1.10" tiledversion="1.10.2" orientation="orthogonal" renderorder="right-down" width="112" height="5" tilewidth="16" tileheight="16" infinite="0" nextlayerid="6" nextobjectid="1">
 <tileset firstgid="1" source="Tileset.tsx"/>
 <imagelayer id="2" name="Camada de Imagens 1" visible="0" opacity="0.8">
  <image source="../../Desktop/spr_tile_wal_stone_strip56.png" trans="fe00b2" width="1792" height="79"/>
 </imagelayer>
 <imagelayer id="4" name="Camada de Imagens 2" visible="0" opacity="0.7">
  <image source="../../Desktop/spr_tile_wal_dirt_strip56.png" width="1792" height="75"/>
 </imagelayer>
 <layer id="5" name="Camada de Blocos 3" width="112" height="5">
  <data encoding="csv">
0,0,6,6,0,0,6,6,6,6,0,0,6,6,6,6,0,0,6,6,6,6,6,6,6,6,0,0,6,6,0,0,0,0,6,6,0,0,0,0,0,6,0,0,6,6,6,0,0,0,6,6,0,0,6,6,6,6,0,0,6,6,6,6,6,6,6,6,0,0,6,6,6,6,0,0,6,6,6,6,6,6,6,6,0,0,6,6,6,6,6,6,6,6,6,6,0,0,6,6,6,6,6,6,6,6,6,6,0,0,0,0,
6,6,6,6,6,6,6,6,6,6,6,6,6,6,6,6,6,6,6,6,6,6,6,6,6,6,6,6,6,6,0,6,0,6,6,6,0,0,0,0,0,6,6,6,6,6,6,6,6,6,6,6,6,0,6,6,6,6,6,6,6,6,6,6,6,6,6,6,0,6,6,6,6,6,6,6,6,6,6,6,6,6,6,6,6,6,6,6,6,6,6,6,6,6,6,6,6,0,6,6,6,6,6,6,6,6,6,6,6,6,6,6,
0,0,0,0,0,0,0,0,0,0,0,0,0,0,0,0,0,0,0,0,0,0,0,0,0,0,0,0,0,0,0,0,0,0,0,0,0,0,0,0,0,0,0,0,0,0,0,0,0,0,0,0,0,0,0,0,0,0,0,0,0,0,0,0,0,0,0,0,0,0,0,0,0,0,0,0,0,0,0,0,0,0,0,0,0,0,0,0,0,0,0,0,0,0,0,0,0,0,0,0,0,0,0,0,0,0,0,0,0,0,0,0,
0,0,0,0,0,0,0,0,0,0,0,0,0,0,0,0,0,0,0,0,0,0,0,0,0,0,0,0,0,0,0,0,0,0,0,0,0,0,0,0,0,0,0,0,0,0,0,0,0,0,0,0,0,0,0,0,0,0,0,0,0,0,0,0,0,0,0,0,0,0,0,0,0,0,0,0,0,0,0,0,0,0,0,0,0,0,0,0,0,0,0,0,0,0,0,0,0,0,0,0,0,0,0,0,0,0,0,0,0,0,0,0,
0,0,0,0,0,0,0,0,0,0,0,0,0,0,0,0,0,0,0,0,0,0,0,0,0,0,0,0,0,0,0,0,0,0,0,0,0,0,0,0,0,0,0,0,0,0,0,0,0,0,0,0,0,0,0,0,0,0,0,0,0,0,0,0,0,0,0,0,0,0,0,0,0,0,0,0,0,0,0,0,0,0,0,0,0,0,0,0,0,0,0,0,0,0,0,0,0,0,0,0,0,0,0,0,0,0,0,0,0,0,0,6
</data>
 </layer>
 <layer id="3" name="Camada de Blocos 2" width="112" height="5">
  <data encoding="csv">
0,0,0,0,0,0,0,0,0,0,0,0,0,0,0,0,0,0,0,0,0,0,0,0,0,0,0,0,0,0,3,4,3,4,0,0,3,4,0,0,0,0,0,0,0,0,0,0,0,0,0,0,0,0,0,0,0,0,0,0,0,0,0,0,0,0,0,0,0,0,0,0,0,0,0,0,0,0,0,0,0,0,0,0,0,0,0,0,0,0,0,0,0,0,0,0,2147483652,2147483651,0,0,0,0,0,0,0,0,0,0,0,0,0,0,
0,0,0,0,0,0,0,0,0,0,0,0,0,0,0,0,0,0,0,0,0,0,0,0,0,0,0,0,0,0,15,16,15,16,0,0,15,16,0,0,0,0,0,0,0,0,0,0,0,0,0,0,0,0,0,0,0,0,0,0,0,0,0,0,0,0,0,0,0,0,0,0,0,0,0,0,0,0,0,0,0,0,0,0,0,0,0,0,0,0,0,0,0,0,0,0,2147483664,2147483663,0,0,0,0,0,0,0,0,0,0,0,0,0,0,
0,0,0,0,0,0,0,0,0,0,0,0,0,0,0,0,0,0,0,0,0,0,0,0,0,0,0,0,0,0,0,0,0,0,0,0,0,0,0,0,0,0,0,0,0,0,0,0,0,0,0,0,0,0,0,0,0,0,0,0,0,0,0,0,0,0,0,0,0,0,0,0,0,0,0,0,0,0,0,0,0,0,0,0,0,0,0,0,0,0,0,0,0,0,0,0,0,0,0,0,0,0,0,0,0,0,0,0,0,0,0,0,
0,0,0,0,0,0,0,0,0,0,0,0,0,0,0,0,0,0,0,0,0,0,0,0,0,0,0,0,0,0,0,0,0,0,0,0,0,0,0,0,0,0,0,0,0,0,0,0,0,0,0,0,0,0,0,0,0,0,0,0,0,0,0,0,0,0,0,0,0,0,0,0,0,0,0,0,0,0,0,0,0,0,0,0,0,0,0,0,0,0,0,0,0,0,0,0,0,0,0,0,0,0,0,0,0,0,0,0,0,0,0,0,
0,0,0,0,0,0,0,0,0,0,0,0,0,0,0,0,0,0,0,0,0,0,0,0,0,0,0,0,0,0,0,0,0,0,0,0,0,0,0,0,0,0,0,0,0,0,0,0,0,0,0,0,0,0,0,0,0,0,0,0,0,0,0,0,0,0,0,0,0,0,0,0,0,0,0,0,0,0,0,0,0,0,0,0,0,0,0,0,0,0,0,0,0,0,0,0,0,0,0,0,0,0,0,0,0,0,0,0,0,0,0,0
</data>
 </layer>
 <layer id="1" name="Camada de Blocos 1" width="112" height="5">
  <data encoding="csv">
1,2,39,2147483687,2147483652,2147483651,40,3221225511,0,2147483699,3,4,39,2147483688,39,0,4,5,40,2147483688,0,2147483688,40,0,0,0,1,2,39,2147483687,0,0,0,0,0,2147483687,0,0,39,2147483688,39,0,4,5,40,2147483688,0,2147483688,4,5,0,0,2147483652,2147483651,40,2147483687,0,2147483687,4,5,40,0,0,2147483688,40,0,0,0,3,4,39,2147483688,39,0,4,5,40,2147483688,0,2147483688,40,0,0,0,4,5,40,2147483688,0,2147483688,40,0,0,0,0,0,0,0,40,3221225523,40,2147483688,40,0,40,2147483688,0,0,4,5,4,5,
13,14,13,14,19,14,2147483667,2147483666,2147483667,2147483666,18,19,18,19,18,19,20,21,20,21,20,21,20,21,20,21,39,2147483687,51,2147483699,0,52,0,0,2147483700,2147483699,0,0,51,52,51,52,2147483700,52,2147483700,52,2147483700,52,2147483700,52,2147483700,52,2147483664,2147483663,0,2147483699,0,2147483699,0,52,20,21,0,52,0,52,0,52,15,16,51,0,51,0,2147483700,0,2147483700,0,2147483700,0,2147483700,0,2147483700,0,0,0,0,0,0,0,0,0,0,0,20,21,2147483700,0,2147483700,3221225511,0,52,2147483700,52,2147483700,0,20,21,20,21,20,21,
25,26,25,26,2147483679,26,2147483679,2147483678,2147483679,2147483678,30,31,30,31,30,31,32,33,32,33,32,33,32,33,32,33,0,0,0,0,0,0,0,0,0,0,0,0,0,0,0,0,0,0,0,0,0,0,0,0,0,0,0,0,0,0,0,0,0,0,0,0,0,0,0,0,0,0,0,0,0,0,0,0,0,0,0,0,0,0,0,0,0,0,0,0,0,0,0,0,0,0,0,0,32,33,0,0,0,0,0,0,0,0,0,0,32,33,32,33,32,33,
37,38,37,38,2147483691,2147483690,2147483691,2147483690,2147483691,2147483690,42,43,42,43,42,43,44,45,44,45,44,45,44,45,44,45,0,0,0,0,0,0,0,0,0,0,0,0,0,0,0,0,0,0,0,0,0,0,0,0,0,0,0,0,0,0,0,0,0,0,0,0,0,0,0,0,0,0,0,0,0,0,0,0,0,0,0,0,0,0,0,0,0,0,0,0,0,0,0,0,0,0,0,0,44,45,0,0,0,0,0,0,0,0,0,0,44,45,44,45,44,45,
49,50,49,50,2147483703,2147483702,2147483703,2147483702,2147483703,2147483702,54,55,54,55,54,55,56,57,56,57,56,57,56,57,56,57,0,0,0,0,0,0,0,0,0,0,0,0,0,0,0,0,0,0,0,0,0,0,0,0,0,0,0,0,0,0,0,0,0,0,0,0,0,0,0,0,0,0,0,0,0,0,0,0,0,0,0,0,0,0,0,0,0,0,0,0,0,0,0,0,0,0,0,0,56,57,0,0,0,0,0,0,0,0,0,0,56,57,56,57,56,57
</data>
 </layer>
</map>
