<?xml version="1.0" encoding="UTF-8"?>
<map version="1.10" tiledversion="1.10.2" orientation="orthogonal" renderorder="right-down" width="224" height="4" tilewidth="16" tileheight="16" infinite="0" nextlayerid="2" nextobjectid="1">
 <tileset firstgid="1" source="AutoGroundTileset.tsx"/>
 <layer id="1" name="Camada de Blocos 1" width="224" height="4">
  <data encoding="csv">
1,2,3,4,0,0,0,0,0,8,2147483654,2147483653,89,0,0,0,0,0,0,0,5,6,2147483656,0,0,0,0,2147483737,0,0,0,0,0,7,8,0,89,0,0,2147483737,0,0,0,2147483737,89,0,0,0,0,0,0,0,1,2,3,4,0,0,0,0,1,2,3,0,1,2,3,0,0,0,0,0,1,2,3,0,0,0,0,2147483737,0,0,0,0,0,7,8,0,89,0,0,2147483737,0,0,0,2147483737,0,7,8,0,0,0,0,0,0,2147483651,2147483650,2147483649,89,0,0,0,0,0,0,0,0,7,8,0,89,0,0,0,0,0,0,2147483737,89,0,0,0,0,0,0,0,1,2,3,0,0,0,0,2147483737,0,0,0,0,0,7,8,0,89,0,0,2147483737,0,0,0,2147483737,89,0,0,0,0,0,0,0,0,7,8,0,89,0,0,2147483737,0,0,0,2147483737,89,0,0,0,0,0,0,0,0,0,0,0,0,2147483655,2147483654,2147483653,89,0,0,0,89,0,0,2147483737,89,0,0,0,89,0,0,2147483737,0,0,0,0,0,7,8,0,0,7,8,0,
22,23,24,25,127,128,3221225579,3221225578,0,29,2147483675,2147483674,0,111,2147483776,2147483775,0,33,2147483776,2147483775,26,27,2147483677,0,127,128,2147483759,0,127,128,2147483681,0,0,28,29,0,0,111,2147483759,0,0,49,2147483759,0,0,111,2147483697,0,0,33,33,0,22,23,24,25,106,107,2147483755,2147483754,22,23,28,0,22,23,28,0,0,49,2147483755,2147483754,22,23,28,0,106,107,2147483759,0,106,107,49,0,0,28,29,0,0,111,2147483759,0,0,50,2147483759,0,0,28,29,0,0,49,49,0,0,2147483676,2147483671,2147483670,0,111,2147483755,2147483754,0,49,2147483755,2147483754,0,28,29,0,0,111,50,0,0,33,2147483759,0,0,111,2147483681,0,0,33,2147483681,0,22,23,28,0,22,107,2147483759,0,22,107,108,0,0,28,29,0,0,111,2147483759,0,0,49,2147483759,0,0,111,2147483697,0,0,49,49,0,0,28,29,0,0,111,2147483759,0,0,50,2147483759,0,0,111,2147483698,0,0,50,50,0,0,33,33,0,0,2147483676,2147483675,2147483674,0,111,2147483755,2147483674,0,111,2147483759,0,0,111,33,0,0,111,2147483759,0,0,33,33,0,0,28,29,0,0,28,29,0,
43,44,45,46,43,44,45,46,0,56,2147483701,2147483700,0,56,2147483701,2147483700,0,56,2147483701,2147483700,52,53,2147483704,0,52,53,2147483704,0,52,53,2147483704,0,0,55,56,0,0,55,56,0,0,55,56,0,0,2147483704,2147483703,0,0,55,56,0,43,107,2147483755,46,127,128,2147483776,2147483775,43,107,132,0,43,107,49,0,0,2147483780,2147483776,2147483775,43,107,49,0,127,128,132,0,127,128,132,0,0,2147483780,132,0,0,2147483780,132,0,0,2147483780,132,0,0,2147483780,132,0,0,2147483780,132,0,0,2147483697,2147483755,2147483691,0,33,2147483776,2147483775,0,33,2147483776,2147483775,0,33,132,0,0,55,56,0,0,33,132,0,0,33,132,0,0,33,132,0,43,107,49,0,43,107,49,0,43,107,49,0,0,2147483780,49,0,0,2147483780,49,0,0,2147483780,49,0,0,2147483780,49,0,0,2147483780,49,0,0,49,49,0,0,33,33,0,0,50,50,0,0,2147483698,2147483698,0,0,50,50,0,0,55,56,0,0,2147483780,2147483696,2147483695,0,2147483780,2147483696,2147483695,0,49,132,0,0,2147483780,132,0,0,2147483780,2147483697,0,0,55,56,0,0,55,56,0,0,55,56,0,
64,65,66,67,64,65,66,67,0,77,2147483722,2147483721,0,77,2147483722,2147483721,0,77,2147483722,2147483721,73,74,2147483725,0,73,74,2147483725,0,73,74,2147483725,0,0,76,77,0,0,76,77,0,0,76,77,0,0,2147483725,2147483724,0,0,76,77,0,0,0,0,0,0,0,0,0,0,0,0,154,0,0,0,0,2147483802,0,0,0,0,0,0,0,0,0,0,154,0,0,0,154,2147483802,0,0,154,2147483802,0,0,154,2147483802,0,0,154,2147483802,0,0,154,2147483802,0,0,154,0,0,0,0,0,0,0,0,0,0,0,0,0,0,0,154,0,76,77,0,0,0,0,154,0,0,0,154,0,0,0,154,0,0,0,0,0,0,0,0,0,0,0,0,2147483802,0,0,0,2147483802,0,0,0,2147483802,0,0,0,2147483802,0,0,0,2147483802,0,0,0,0,0,0,0,0,0,0,0,0,0,0,0,0,0,0,0,0,0,0,0,0,76,77,0,2147483802,0,0,0,2147483802,0,0,0,0,0,0,154,2147483802,0,0,154,2147483802,0,0,0,0,76,77,0,0,76,77,0,0,76,77,0
</data>
 </layer>
</map>
