<?xml version="1.0" encoding="UTF-8"?>
<map version="1.10" tiledversion="1.10.2" orientation="orthogonal" renderorder="right-down" width="112" height="4" tilewidth="16" tileheight="16" infinite="0" nextlayerid="2" nextobjectid="1">
 <tileset firstgid="1" source="Fence_Tiles.tsx"/>
 <layer id="1" name="Camada de Blocos 1" width="112" height="4">
  <data encoding="csv">
69,70,49,50,67,68,49,50,49,50,61,62,49,50,49,50,63,64,49,50,49,50,49,50,49,50,69,70,47,48,61,62,61,62,49,50,61,62,47,48,47,48,27,28,49,50,49,50,69,70,49,50,27,28,49,50,49,50,65,66,49,50,49,50,49,50,49,50,61,62,49,50,49,50,63,64,49,50,49,50,49,50,49,50,69,70,49,50,49,50,49,50,49,50,49,50,27,28,49,50,49,50,49,50,49,50,67,68,65,66,0,0,
79,80,79,80,77,78,77,78,77,78,71,72,71,72,71,72,73,74,73,74,75,76,75,76,75,76,79,80,79,80,71,72,71,72,77,80,71,72,71,72,71,72,37,58,57,58,57,58,57,58,57,58,77,78,77,78,77,78,75,76,75,76,71,72,75,76,75,76,71,72,71,72,71,72,73,74,73,74,73,74,73,74,73,74,73,74,73,74,73,74,73,74,73,74,73,74,77,78,77,78,75,76,75,76,75,76,75,76,75,76,0,0,
89,90,89,90,87,88,87,88,87,88,81,82,81,82,81,82,83,84,83,84,85,86,85,86,85,86,89,90,89,90,81,82,81,82,87,90,81,82,81,82,81,82,85,86,85,86,85,86,85,86,85,86,87,88,87,88,87,88,85,86,85,86,81,82,85,86,85,86,81,82,81,82,81,82,83,84,83,84,83,84,83,84,83,84,83,84,83,84,83,84,83,84,83,84,83,84,87,88,87,88,85,86,85,86,85,86,85,86,85,86,0,0,
99,100,99,100,97,98,97,98,97,98,91,92,91,92,91,92,93,94,93,94,95,96,95,96,95,96,99,100,99,100,91,92,91,92,97,100,91,92,91,92,91,92,95,96,95,96,95,96,95,96,95,96,97,98,97,98,97,98,95,96,95,96,91,92,95,96,95,96,91,92,91,92,91,92,93,94,93,94,93,94,93,94,93,94,93,94,93,94,93,94,93,94,93,94,93,94,97,98,97,98,95,96,95,96,95,96,95,96,95,96,0,0
</data>
 </layer>
</map>
